web-app/src/assets/SVG/user.svg

<svg width="22" height="22" viewBox="0 0 22 22" fill="none" xmlns="http://www.w3.org/2000/svg">
<g clip-path="url(#clip0_546_1505)">
<path d="M10.9998 11C13.0257 11 14.6665 9.35913 14.6665 7.33329C14.6665 5.30746 13.0257 3.66663 10.9998 3.66663C8.974 3.66663 7.33317 5.30746 7.33317 7.33329C7.33317 9.35913 8.974 11 10.9998 11ZM10.9998 12.8333C8.55234 12.8333 3.6665 14.0616 3.6665 16.5V17.4166C3.6665 17.9208 4.079 18.3333 4.58317 18.3333H17.4165C17.9207 18.3333 18.3332 17.9208 18.3332 17.4166V16.5C18.3332 14.0616 13.4473 12.8333 10.9998 12.8333Z" fill="url(#paint0_linear_546_1505)"/>
</g>
<defs>
<linearGradient id="paint0_linear_546_1505" x1="10.9998" y1="3.66663" x2="10.9998" y2="18.3333" gradientUnits="userSpaceOnUse">
<stop stop-color="#9B51E0"/>
<stop offset="1" stop-color="#720ECF"/>
</linearGradient>
<clipPath id="clip0_546_1505">
<rect width="22" height="22" fill="white"/>
</clipPath>
</defs>
</svg>

<svg xmlns="http://www.w3.org/2000/svg" width="22" height="22" fill="none"><g clip-path="url(#a)"><path fill="url(#b)" d="M11 11a3.666 3.666 0 0 0 3.666-3.667A3.666 3.666 0 0 0 11 3.667a3.666 3.666 0 0 0-3.667 3.666A3.666 3.666 0 0 0 11 11Zm0 1.833c-2.448 0-7.333 1.229-7.333 3.667v.917a.92.92 0 0 0 .916.916h12.834a.92.92 0 0 0 .916-.916V16.5c0-2.438-4.886-3.667-7.333-3.667Z"/></g><defs><linearGradient id="b" x1="11" x2="11" y1="3.667" y2="18.333" gradientUnits="userSpaceOnUse"><stop stop-color="#9B51E0"/><stop offset="1" stop-color="#720ECF"/></linearGradient><clipPath id="a"><path fill="#fff" d="M0 0h22v22H0z"/></clipPath></defs></svg>
